X: 100341
M: C|
L: 1/8
K: F
uA |\
uA |\
(FA)cA (fe)fc | (AF)cA (BG)GA | (FA)cA (fe)fc | dfcf AFFA |
(FA)cA (fe)fc | (AF)cA (BG)GA | (FA)cA (Bc)de | (fc)dB "Fine."(BF)F "^D.C."|]


